!!!COM: Corelli, Arcangelo
!!!OTL: 
!!!ONM: Opus 6, No. 6
!!!OMV: 2
!!!CDT: 1653/2/17/-1713/1/8/
!!!OCY: Italia
**kern	**kern	**kern	**kern	**kern	**kern	**kern
*clefC	*clefG	*clefG	*clefG	*clefC	*clefG	*clefG
*k[b-]	*k[b-]	*k[b-]	*k[b-]	*k[b-]	*k[b-]	*k[b-]
*F:	*F:	*F:	*F:	*F:	*F:	*F:
*M4/4	*M4/4	*M4/4	*M4/4	*M4/4	*M4/4	*M4/4
=1	=1	=1	=1	=1	=1	=1
1r	1r	1r	1r	4f	1r	16ff
.	.	.	.	.	.	16cc
.	.	.	.	.	.	16ff
.	.	.	.	.	.	16aa
.	.	.	.	4r	.	16ff
.	.	.	.	.	.	16cc
.	.	.	.	.	.	16ff
.	.	.	.	.	.	16aa
.	.	.	.	4e	.	16gg
.	.	.	.	.	.	16cc
.	.	.	.	.	.	16gg
.	.	.	.	.	.	16bb-
.	.	.	.	4r	.	16gg
.	.	.	.	.	.	16cc
.	.	.	.	.	.	16gg
.	.	.	.	.	.	16bb-
=2	=2	=2	=2	=2	=2	=2
1r	1r	1r	1r	8f	16ff	8aa
.	.	.	.	.	16cc	.
.	.	.	.	8F	16ff	8cc
.	.	.	.	.	16aa	.
.	.	.	.	8A	16ff	2ff
.	.	.	.	.	16cc	.
.	.	.	.	8F	16ff	.
.	.	.	.	.	16aa	.
.	.	.	.	8B-	16gg	.
.	.	.	.	.	16cc	.
.	.	.	.	8G	16gg	.
.	.	.	.	.	16bb-	.
.	.	.	.	8c	16gg	4ee
.	.	.	.	.	16cc	.
.	.	.	.	8C	16gg	.
.	.	.	.	.	16bb-	.
=3	=3	=3	=3	=3	=3	=3
1r	1r	1r	1r	8F	8aa	4ff
.	.	.	.	8G	8cc	.
.	.	.	.	8A	4.ff	8r
.	.	.	.	8F	.	8aa
.	.	.	.	4c	.	4gg
.	.	.	.	.	4ee	.
.	.	.	.	4d	.	4ff
.	.	.	.	.	[8dd	.
=4	=4	=4	=4	=4	=4	=4
1r	1r	1r	1r	4A	8dd]	4ee
.	.	.	.	.	4cc	.
.	.	.	.	4B-	.	4dd
.	.	.	.	.	4b-	.
.	.	.	.	8c	.	8e
.	.	.	.	8F	8a	4f
.	.	.	.	8c	4g	.
.	.	.	.	8C	.	8e
=5	=5	=5	=5	=5	=5	=5
1r	1r	1r	1r	8F	4a	8f
.	.	.	.	8G	.	8cc
.	.	.	.	8A	8r	4.ff
.	.	.	.	8F	8aa	.
.	.	.	.	4C	4gg	.
.	.	.	.	.	.	4ee
.	.	.	.	4D	4ff	.
.	.	.	.	.	.	[8dd
=6	=6	=6	=6	=6	=6	=6
1r	1r	1r	1r	4AA	4ee	8dd]
.	.	.	.	.	.	4cc
.	.	.	.	4BB-	4dd	.
.	.	.	.	.	.	4b-
.	.	.	.	8C	8e	.
.	.	.	.	8FF	4f	8a
.	.	.	.	8C	.	4g
.	.	.	.	8CC	8e	.
=7	=7	=7	=7	=7	=7	=7
4F	4r	4cc	16a	8F	4cc	16a
.	.	.	16cc	.	.	16cc
.	.	.	16a	8G	.	16a
.	.	.	16cc	.	.	16cc
4r	4f	8r	16a	8A	8r	16a
.	.	.	16cc	.	.	16cc
.	.	8cc	16a	8F	8cc	16a
.	.	.	16cc	.	.	16cc
4E	4r	8cc	16g	8E	8cc	16g
.	.	.	16cc	.	.	16cc
.	.	8c	16g	8C	8c	16g
.	.	.	16cc	.	.	16cc
4r	4c	8r	16g	8E	8r	16g
.	.	.	16cc	.	.	16cc
.	.	8cc	16g	8C	8cc	16g
.	.	.	16cc	.	.	16cc
=8	=8	=8	=8	=8	=8	=8
4F	4r	8cc	16a	8r	8cc	16a
.	.	.	16cc	.	.	16cc
.	.	8f	16a	8F	8f	16a
.	.	.	16cc	.	.	16cc
4r	4f	8r	16a	8A	8r	16a
.	.	.	16cc	.	.	16cc
.	.	8cc	16a	8F	8cc	16a
.	.	.	16cc	.	.	16cc
4E	4r	8cc	16g	8r	8cc	16g
.	.	.	16cc	.	.	16cc
.	.	8c	16g	8C	8c	16g
.	.	.	16cc	.	.	16cc
4r	4c	8r	16g	8E	8r	16g
.	.	.	16cc	.	.	16cc
.	.	8cc	16g	8C	8cc	16g
.	.	.	16cc	.	.	16cc
=9	=9	=9	=9	=9	=9	=9
4F	4r	8cc	16a	8r	8cc	16a
.	.	.	16cc	.	.	16cc
.	.	8f	16a	8F	8f	16a
.	.	.	16cc	.	.	16cc
4r	4f	4r	16a	8A	4r	16a
.	.	.	16cc	.	.	16cc
.	.	.	16a	8F	.	16a
.	.	.	16cc	.	.	16cc
4F#	4r	4dd	16a	8r	4dd	16a
.	.	.	16dd	.	.	16dd
.	.	.	16a	8D	.	16a
.	.	.	16dd	.	.	16dd
4r	4d	8r	16a	8F#	8r	16a
.	.	.	16dd	.	.	16dd
.	.	8dd	16a	8D	8dd	16a
.	.	.	16dd	.	.	16dd
=10	=10	=10	=10	=10	=10	=10
4G	4r	8dd	16b-	8r	8dd	16b-
.	.	.	16dd	.	.	16dd
.	.	8g	16b-	8G	8g	16b-
.	.	.	16dd	.	.	16dd
4r	4g	8r	16b-	8B-	8r	16b-
.	.	.	16dd	.	.	16dd
.	.	8dd	16b-	8G	8dd	16b-
.	.	.	16dd	.	.	16dd
4F#	4r	8dd	16a	8r	8dd	16a
.	.	.	16dd	.	.	16dd
.	.	8d	16a	8D	8d	16a
.	.	.	16dd	.	.	16dd
4r	4d	8r	16a	8F#	8r	16a
.	.	.	16dd	.	.	16dd
.	.	8dd	16a	8D	8dd	16a
.	.	.	16dd	.	.	16dd
=11	=11	=11	=11	=11	=11	=11
4G	4r	8dd	16b-	8r	8dd	16b-
.	.	.	16dd	.	.	16dd
.	.	8g	16b-	8G	8g	16b-
.	.	.	16dd	.	.	16dd
4r	4g	4r	16b-	8B-	4r	16b-
.	.	.	16dd	.	.	16dd
.	.	.	16b-	8G	.	16b-
.	.	.	16dd	.	.	16dd
4G#	4r	4ee	16b	8r	4ee	16b
.	.	.	16ee	.	.	16ee
.	.	.	16b	8E	.	16b
.	.	.	16ee	.	.	16ee
4r	4e	8r	16b	8G#	8r	16b
.	.	.	16ee	.	.	16ee
.	.	8ee	16b	8E	8ee	16b
.	.	.	16ee	.	.	16ee
=12	=12	=12	=12	=12	=12	=12
4A	4r	8ee	16cc	8r	8ee	16cc
.	.	.	16ee	.	.	16ee
.	.	8a	16cc	8A	8a	16cc
.	.	.	16ee	.	.	16ee
4r	4a	8r	16cc	8c	8r	16cc
.	.	.	16ee	.	.	16ee
.	.	8ee	16cc	8A	8ee	16cc
.	.	.	16ee	.	.	16ee
4G#	4r	8ee	16b	8r	8ee	16b
.	.	.	16ee	.	.	16ee
.	.	8e	16b	8E	8e	16b
.	.	.	16ee	.	.	16ee
4r	4e	8r	16b	8G#	8r	16b
.	.	.	16ee	.	.	16ee
.	.	8ee	16b	8E	8ee	16b
.	.	.	16ee	.	.	16ee
=13	=13	=13	=13	=13	=13	=13
4A	4r	8ee	16cc	8r	8ee	16cc
.	.	.	16ee	.	.	16ee
.	.	8a	16cc	8A	8a	16cc
.	.	.	16ee	.	.	16ee
4r	4a	4r	16cc	8c	4r	16cc
.	.	.	16ee	.	.	16ee
.	.	.	16cc	8A	.	16cc
.	.	.	16ee	.	.	16ee
4AA	4r	4ff	16cc	8r	4ff	16cc
.	.	.	16ff	.	.	16ff
.	.	.	16cc	8F	.	16cc
.	.	.	16ff	.	.	16ff
4r	4f	8r	16cc	8A	8r	16cc
.	.	.	16ff	.	.	16ff
.	.	8ff	16cc	8F	8ff	16cc
.	.	.	16ff	.	.	16ff
=14	=14	=14	=14	=14	=14	=14
4BB-	4r	8ff	16dd	8r	8ff	16dd
.	.	.	16ff	.	.	16ff
.	.	8b-	16dd	8B-	8b-	16dd
.	.	.	16ff	.	.	16ff
4r	4B-	4r	16dd	8d	4r	16dd
.	.	.	16ff	.	.	16ff
.	.	.	16dd	8A	.	16dd
.	.	.	16ff	.	.	16ff
4BB	4r	4gg	16dd	8r	4gg	16dd
.	.	.	16gg	.	.	16gg
.	.	.	16dd	8G	.	16dd
.	.	.	16gg	.	.	16gg
4r	4g	8r	16dd	8B	8r	16dd
.	.	.	16gg	.	.	16gg
.	.	8gg	16dd	8G	8gg	16dd
.	.	.	16gg	.	.	16gg
=15	=15	=15	=15	=15	=15	=15
4C	4r	8gg	16ee	8r	8gg	16ee
.	.	.	16gg	.	.	16gg
.	.	8cc	16ee	8c	8cc	16ee
.	.	.	16gg	.	.	16gg
4r	4c	4r	16ee	8e	4r	16ee
.	.	.	16gg	.	.	16gg
.	.	.	16ee	8c	.	16ee
.	.	.	16gg	.	.	16gg
4C#	4r	4aa	16ee	8r	4aa	16ee
.	.	.	16aa	.	.	16aa
.	.	.	16ee	8A	.	16ee
.	.	.	16aa	.	.	16aa
4r	4a	8r	16ee	8c#	8r	16ee
.	.	.	16aa	.	.	16aa
.	.	8aa	16ee	8A	8aa	16ee
.	.	.	16aa	.	.	16aa
=16	=16	=16	=16	=16	=16	=16
4D	4r	8aa	16ff	8r	8aa	16ff
.	.	.	16aa	.	.	16aa
.	.	8dd	16ff	8d	8dd	16ff
.	.	.	16aa	.	.	16aa
4r	4d	4r	16ff	8f	4r	16ff
.	.	.	16aa	.	.	16aa
.	.	.	16ff	8d	.	16ff
.	.	.	16aa	.	.	16aa
4BB-	4r	4bb-	16ff	8r	4bb-	16ff
.	.	.	16bb-	.	.	16bb-
.	.	.	16ff	8B-	.	16ff
.	.	.	16bb-	.	.	16bb-
8r	4b-	8r	16ff	8d	8r	16ff
.	.	.	16bb-	.	.	16bb-
8B-	.	8bb-	16ff	8B-	8bb-	16ff
.	.	.	16bb-	.	.	16bb-
=17	=17	=17	=17	=17	=17	=17
8c	4g	4bb-	8ee	8c	4bb-	8ee
8E	.	.	8cc	8E	.	8cc
8F	8f	8aa	2ff	8F	8aa	2ff
8BB-	8d	8gg	.	8BB-	8gg	.
4C	4.c	4aa	.	4C	4aa	.
4CC	.	4gg	4ee	4CC	4gg	4ee
.	8c	.	.	.	.	.
=18	=18	=18	=18	=18	=18	=18
2FF	2A	2ff	2ff	2FF	2ff	2ff
4BB-	4r	4dd	16f	8r	4dd	16f
.	.	.	16b-	.	.	16b-
.	.	.	16dd	8B-	.	16dd
.	.	.	16b-	.	.	16b-
4r	4b-	8r	16f	8d	8r	16f
.	.	.	16b-	.	.	16b-
.	.	8dd	16dd	8B-	8dd	16dd
.	.	.	16b-	.	.	16b-
=19	=19	=19	=19	=19	=19	=19
4AA	4r	8cc	16f	8r	8cc	16f
.	.	.	16a	.	.	16a
.	.	8A	16cc	8F	8A	16cc
.	.	.	16a	.	.	16a
4r	4f	4r	16f	8A	4r	16f
.	.	.	16a	.	.	16a
.	.	.	16cc	8F	.	16cc
.	.	.	16a	.	.	16a
4BB-	4r	4dd	16f	8r	4dd	16f
.	.	.	16b-	.	.	16b-
.	.	.	16dd	8B-	.	16dd
.	.	.	16b-	.	.	16b-
4r	4b-	8r	16f	8d	8r	16f
.	.	.	16b-	.	.	16b-
.	.	8dd	16dd	8B-	8dd	16dd
.	.	.	16b-	.	.	16b-
=20	=20	=20	=20	=20	=20	=20
4AA	4r	8cc	16f	8r	8cc	16f
.	.	.	16a	.	.	16a
.	.	8A	16cc	8F	8A	16cc
.	.	.	16a	.	.	16a
4r	4f	4r	16f	8A	4r	16f
.	.	.	16a	.	.	16a
.	.	.	16cc	8F	.	16cc
.	.	.	16a	.	.	16a
4BB-	4r	4dd	8dd	8r	4dd	8dd
.	.	.	8f	8B-	.	8f
8r	4b-	8r	[4b-	8d	8r	[4b-
8B-	.	8gg	.	8B-	8gg	.
=21	=21	=21	=21	=21	=21	=21
8c	4g	8ee	4b-]	8c	8ee	4b-]
8E	.	8cc	.	8E	8cc	.
8F	8f	2ff	8a	8F	2ff	8a
8BB-	8d	.	8g	8BB-	.	8g
4C	4.c	.	4a	4C	.	4a
4CC	.	4ee	4g	4CC	4ee	4g
.	8c	.	.	.	.	.
=22	=22	=22	=22	=22	=22	=22
2FF	2A	2ff	2f	2FF	2ff	2f
4BB-	4B-	8ff	4dd	8B-	8ff	4dd
.	.	8f	.	8BB-	8f	.
8r	8r	[4b-	8r	8D	[4b-	8r
8BB-	8b-	.	8d	8BB-	.	8d
=23	=23	=23	=23	=23	=23	=23
8C	4g	4b-]	8e	8C	4b-]	8e
8E	.	.	8c	8E	.	8c
8F	8f	8a	2f	8F	8a	2f
8BB-	8d	8g	.	8BB-	8g	.
4C	4.c	4a	.	4C	4a	.
4CC	.	4g	4e	4CC	4g	4e
.	8c	.	.	.	.	.
=24	=24	=24	=24	=24	=24	=24
2FF	2A	2f	2f	2FF	2f	2f
4c#	4r	4aa	16ee	8r	4aa	16ee
.	.	.	16aa	.	.	16aa
.	.	.	16ee	8A	.	16ee
.	.	.	16aa	.	.	16aa
4r	4a	8r	16ee	8c#	8r	16ee
.	.	.	16aa	.	.	16aa
.	.	8aa	16ee	8A	8aa	16ee
.	.	.	16aa	.	.	16aa
=25	=25	=25	=25	=25	=25	=25
4d	4r	8aa	16ff	8r	8aa	16ff
.	.	.	16aa	.	.	16aa
.	.	8dd	16ff	8d	8dd	16ff
.	.	.	16aa	.	.	16aa
4r	4d	8r	16ff	8f	8r	16ff
.	.	.	16aa	.	.	16aa
.	.	8aa	16ff	8d	8aa	16ff
.	.	.	16aa	.	.	16aa
4c#	4r	8aa	16ee	8r	8aa	16ee
.	.	.	16aa	.	.	16aa
.	.	8a	16ee	8A	8a	16ee
.	.	.	16aa	.	.	16aa
4r	4a	8r	16ee	8c#	8r	16ee
.	.	.	16aa	.	.	16aa
.	.	8aa	16ee	8A	8aa	16ee
.	.	.	16aa	.	.	16aa
=26	=26	=26	=26	=26	=26	=26
4d	4r	8aa	16ff	8r	8aa	16ff
.	.	.	16aa	.	.	16aa
.	.	8dd	16ff	8d	8dd	16ff
.	.	.	16aa	.	.	16aa
4r	4d	4r	16ff	8f	4r	16ff
.	.	.	16aa	.	.	16aa
.	.	.	16ff	8d	.	16ff
.	.	.	16aa	.	.	16aa
4B	4r	4gg	16dd	8r	4gg	16dd
.	.	.	16gg	.	.	16gg
.	.	.	16dd	8G	.	16dd
.	.	.	16gg	.	.	16gg
4r	4g	8r	16dd	8B	8r	16dd
.	.	.	16gg	.	.	16gg
.	.	8gg	16dd	8G	8gg	16dd
.	.	.	16gg	.	.	16gg
=27	=27	=27	=27	=27	=27	=27
4c	4r	8gg	16ee	8r	8gg	16ee
.	.	.	16gg	.	.	16gg
.	.	8cc	16ee	8c	8cc	16ee
.	.	.	16gg	.	.	16gg
4r	4c	8r	16ee	8e	8r	16ee
.	.	.	16gg	.	.	16gg
.	.	8gg	16ee	8c	8gg	16ee
.	.	.	16gg	.	.	16gg
4B	4r	8gg	16dd	8r	8gg	16dd
.	.	.	16gg	.	.	16gg
.	.	8g	16dd	8G	8g	16dd
.	.	.	16gg	.	.	16gg
4r	4g	8r	16dd	8B	8r	16dd
.	.	.	16gg	.	.	16gg
.	.	8gg	16dd	8G	8gg	16dd
.	.	.	16gg	.	.	16gg
=28	=28	=28	=28	=28	=28	=28
4c	4r	8gg	16ee	8r	8gg	16ee
.	.	.	16gg	.	.	16gg
.	.	8cc	16ee	8c	8cc	16ee
.	.	.	16gg	.	.	16gg
4r	4c	4r	16ee	8e	4r	16ee
.	.	.	16gg	.	.	16gg
.	.	.	16ee	8c	.	16ee
.	.	.	16gg	.	.	16gg
4A	4r	4ff	16cc	8r	4ff	16cc
.	.	.	16ff	.	.	16ff
.	.	.	16cc	8F	.	16cc
.	.	.	16ff	.	.	16ff
4r	4f	8r	16cc	8A	8r	16cc
.	.	.	16ff	.	.	16ff
.	.	8ff	16cc	8F	8ff	16cc
.	.	.	16ff	.	.	16ff
=29	=29	=29	=29	=29	=29	=29
4B-	4r	8ff	16dd	8r	8ff	16dd
.	.	.	16ff	.	.	16ff
.	.	8b-	16dd	8B-	8b-	16dd
.	.	.	16ff	.	.	16ff
4r	4B-	4r	16dd	8d	4r	16dd
.	.	.	16ff	.	.	16ff
.	.	.	16dd	8B-	.	16dd
.	.	.	16ff	.	.	16ff
4A	4r	4ff	16cc	8r	4ff	16cc
.	.	.	16ff	.	.	16ff
.	.	.	16cc	8F	.	16cc
.	.	.	16ff	.	.	16ff
4r	4f	8r	16cc	8A	8r	16cc
.	.	.	16ff	.	.	16ff
.	.	8ff	16cc	8F	8ff	16cc
.	.	.	16ff	.	.	16ff
=30	=30	=30	=30	=30	=30	=30
4B-	4r	8ff	16dd	8r	8ff	16dd
.	.	.	16ff	.	.	16ff
.	.	8b-	16dd	8B-	8b-	16dd
.	.	.	16ff	.	.	16ff
4r	4B-	4r	16dd	8d	4r	16dd
.	.	.	16ff	.	.	16ff
.	.	.	16dd	8B-	.	16dd
.	.	.	16ff	.	.	16ff
4G	4r	4bb-	16dd	8r	4bb-	16dd
.	.	.	16gg	.	.	16gg
.	.	.	16dd	8G	.	16dd
.	.	.	16gg	.	.	16gg
8r	4g	8r	16dd	8B-	8r	16dd
.	.	.	16bb-	.	.	16bb-
8G	.	8gg	16dd	8G	8gg	16dd
.	.	.	16bb-	.	.	16bb-
=31	=31	=31	=31	=31	=31	=31
4A	4e	4gg	8cc#	4A	4gg	8cc#
.	.	.	8a	.	.	8a
4D	8f	8ff	2dd	4D	8ff	2dd
.	8g	8ee	.	.	8ee	.
4A	4.a	4ff	.	4A	4ff	.
4AA	.	4ee	4cc#	4AA	4ee	4cc#
.	8a	.	.	.	.	.
=32	=32	=32	=32	=32	=32	=32
4D	4a	8d	16dd	4D	8d	16dd
.	.	.	16aa	.	.	16aa
.	.	8e	16gg	.	8e	16gg
.	.	.	16aa	.	.	16aa
2.r	2.r	8f	16ff	2.r	8f	16ff
.	.	.	16aa	.	.	16aa
.	.	8d	16gg	.	8d	16gg
.	.	.	16aa	.	.	16aa
.	.	8c#	16ee	.	8c#	16ee
.	.	.	16aa	.	.	16aa
.	.	8B	16gg	.	8B	16gg
.	.	.	16aa	.	.	16aa
.	.	8c#	16ee	.	8c#	16ee
.	.	.	16aa	.	.	16aa
.	.	8A	16gg	.	8A	16gg
.	.	.	16aa	.	.	16aa
=33	=33	=33	=33	=33	=33	=33
1r	1r	8d	16ff	1r	8d	16ff
.	.	.	16aa	.	.	16aa
.	.	8e	16gg	.	8e	16gg
.	.	.	16aa	.	.	16aa
.	.	8f	16ff	.	8f	16ff
.	.	.	16aa	.	.	16aa
.	.	8d	16gg	.	8d	16gg
.	.	.	16aa	.	.	16aa
.	.	8c#	16ee	.	8c#	16ee
.	.	.	16aa	.	.	16aa
.	.	8B	16gg	.	8B	16gg
.	.	.	16aa	.	.	16aa
.	.	8c#	16ee	.	8c#	16ee
.	.	.	16aa	.	.	16aa
.	.	8A	16gg	.	8A	16gg
.	.	.	16aa	.	.	16aa
=34	=34	=34	=34	=34	=34	=34
8D	4a	4.d	8ff	8D	4.d	8ff
8E	.	.	8a	8E	.	8a
8F	8r	.	2dd	8F	.	2dd
8D	8d	8aa	.	8D	8aa	.
8E	4B	8gg#	.	8E	8gg#	.
8G#	.	8ee	.	8G#	8ee	.
8A	8r	[4aa	8cc	8A	[4aa	8cc
8D	8f	.	8b	8D	.	8b
=35	=35	=35	=35	=35	=35	=35
4E	4e	4aa]	4cc	4E	4aa]	4cc
4EE	4e	4gg#	4b	4EE	4gg#	4b
4.AA	4e	8aa	4.a	4AA	8aa	4.a
.	.	8a	.	.	8a	.
.	8r	[4dd	.	8r	[4dd	.
8D	8d	.	8ff	8D	.	8ff
=36	=36	=36	=36	=36	=36	=36
4E	4B	4dd]	4g#	4E	4dd]	4g#
4AA	8c	8cc	2a	4AA	8cc	2a
.	8d	8b	.	.	8b	.
4E	2e	4cc	.	4E	4cc	.
4EE	.	4b	4g#	4EE	4b	4g#
=37	=37	=37	=37	=37	=37	=37
2AA	2e	2a	2a	4AA	4a	4a
.	.	.	.	4r	2.r	4r
2r	2r	2r	2r	4f	.	16ff
.	.	.	.	.	.	16cc
.	.	.	.	.	.	16ff
.	.	.	.	.	.	16aa
.	.	.	.	4r	.	16ff
.	.	.	.	.	.	16cc
.	.	.	.	.	.	16ff
.	.	.	.	.	.	16aa
=38	=38	=38	=38	=38	=38	=38
1r	1r	1r	1r	4e	2r	16gg
.	.	.	.	.	.	16cc
.	.	.	.	.	.	16gg
.	.	.	.	.	.	16bb-
.	.	.	.	4r	.	16gg
.	.	.	.	.	.	16cc
.	.	.	.	.	.	16gg
.	.	.	.	.	.	16bb-
.	.	.	.	8f	16ff	8aa
.	.	.	.	.	16cc	.
.	.	.	.	8F	16ff	8cc
.	.	.	.	.	16aa	.
.	.	.	.	8A	16ff	[4ff
.	.	.	.	.	16cc	.
.	.	.	.	8F	16ff	.
.	.	.	.	.	16aa	.
=39	=39	=39	=39	=39	=39	=39
1r	1r	1r	1r	8B-	16gg	4ff]
.	.	.	.	.	16cc	.
.	.	.	.	8G	16gg	.
.	.	.	.	.	16bb-	.
.	.	.	.	8c	16gg	4ee
.	.	.	.	.	16cc	.
.	.	.	.	8C	16gg	.
.	.	.	.	.	16bb-	.
.	.	.	.	8F	8aa	4ff
.	.	.	.	8G	8cc	.
.	.	.	.	8A	[4ff	8r
.	.	.	.	8F	.	8aa
=40	=40	=40	=40	=40	=40	=40
1r	1r	1r	1r	4c	8ff]	4gg
.	.	.	.	.	4ee	.
.	.	.	.	4d	.	4ff
.	.	.	.	.	4dd	.
.	.	.	.	4A	.	4ee
.	.	.	.	.	4cc	.
.	.	.	.	4B-	.	4dd
.	.	.	.	.	[8b-	.
=41	=41	=41	=41	=41	=41	=41
1r	1r	1r	1r	8c	8b-]	8e
.	.	.	.	8F	8a	4f
.	.	.	.	8c	4g	.
.	.	.	.	8C	.	8e
.	.	.	.	8F	4a	8f
.	.	.	.	8G	.	8cc
.	.	.	.	8A	8r	[4ff
.	.	.	.	8F	8aa	.
=42	=42	=42	=42	=42	=42	=42
1r	1r	1r	1r	4C	4gg	8ff]
.	.	.	.	.	.	4ee
.	.	.	.	4D	4ff	.
.	.	.	.	.	.	4dd
.	.	.	.	4AA	4ee	.
.	.	.	.	.	.	4cc
.	.	.	.	4BB-	4dd	.
.	.	.	.	.	.	[8b-
=43	=43	=43	=43	=43	=43	=43
2r	2.r	2r	2r	8C	8e	8b-]
.	.	.	.	8FF	4f	8a
.	.	.	.	8C	.	4g
.	.	.	.	8CC	8e	.
4F	.	4cc	16a	8F	4cc	16a
.	.	.	16cc	.	.	16cc
.	.	.	16a	8G	.	16a
.	.	.	16cc	.	.	16cc
4r	4f	8r	16a	8A	8r	16a
.	.	.	16cc	.	.	16cc
.	.	8cc	16a	8F	8cc	16a
.	.	.	16cc	.	.	16cc
=44	=44	=44	=44	=44	=44	=44
4E	4r	8cc	16g	8E	8cc	16g
.	.	.	16cc	.	.	16cc
.	.	8c	16g	8C	8c	16g
.	.	.	16cc	.	.	16cc
4r	4c	8r	16g	8E	8r	16g
.	.	.	16cc	.	.	16cc
.	.	8cc	16g	8C	8cc	16g
.	.	.	16cc	.	.	16cc
4F	4r	8cc	16a	8r	8cc	16a
.	.	.	16cc	.	.	16cc
.	.	8f	16a	8F	8f	16a
.	.	.	16cc	.	.	16cc
4r	4f	8r	16a	8A	8r	16a
.	.	.	16cc	.	.	16cc
.	.	8cc	16a	8F	8cc	16a
.	.	.	16cc	.	.	16cc
=45	=45	=45	=45	=45	=45	=45
4E	4r	8cc	16g	8r	8cc	16g
.	.	.	16cc	.	.	16cc
.	.	8c	16g	8C	8c	16g
.	.	.	16cc	.	.	16cc
4r	4c	8r	16g	8E	8r	16g
.	.	.	16cc	.	.	16cc
.	.	8cc	16g	8C	8cc	16g
.	.	.	16cc	.	.	16cc
4F	4r	8cc	16a	8r	8cc	16a
.	.	.	16cc	.	.	16cc
.	.	8f	16a	8F	8f	16a
.	.	.	16cc	.	.	16cc
4r	4f	4r	16a	8A	4r	16a
.	.	.	16cc	.	.	16cc
.	.	.	16a	8F	.	16a
.	.	.	16cc	.	.	16cc
=46	=46	=46	=46	=46	=46	=46
4F#	4r	4dd	16a	8r	4dd	16a
.	.	.	16dd	.	.	16dd
.	.	.	16a	8D	.	16a
.	.	.	16dd	.	.	16dd
4r	4d	8r	16a	8F#	8r	16a
.	.	.	16dd	.	.	16dd
.	.	8dd	16a	8D	8dd	16a
.	.	.	16dd	.	.	16dd
4G	4r	8dd	16b-	8r	8dd	16b-
.	.	.	16dd	.	.	16dd
.	.	8g	16b-	8G	8g	16b-
.	.	.	16dd	.	.	16dd
4r	4g	8r	16b-	8B-	8r	16b-
.	.	.	16dd	.	.	16dd
.	.	8dd	16b-	8G	8dd	16b-
.	.	.	16dd	.	.	16dd
=47	=47	=47	=47	=47	=47	=47
4F#	4r	8dd	16a	8r	8dd	16a
.	.	.	16dd	.	.	16dd
.	.	8d	16a	8D	8d	16a
.	.	.	16dd	.	.	16dd
4r	4d	8r	16a	8F#	8r	16a
.	.	.	16dd	.	.	16dd
.	.	8dd	16a	8D	8dd	16a
.	.	.	16dd	.	.	16dd
4G	4r	8dd	16b-	8r	8dd	16b-
.	.	.	16dd	.	.	16dd
.	.	8g	16b-	8G	8g	16b-
.	.	.	16dd	.	.	16dd
4r	4g	4r	16b-	8B-	4r	16b-
.	.	.	16dd	.	.	16dd
.	.	.	16b-	8G	.	16b-
.	.	.	16dd	.	.	16dd
=48	=48	=48	=48	=48	=48	=48
4G#	4r	4ee	16b	8r	4ee	16b
.	.	.	16ee	.	.	16ee
.	.	.	16b	8E	.	16b
.	.	.	16ee	.	.	16ee
4r	4e	8r	16b	8G#	8r	16b
.	.	.	16ee	.	.	16ee
.	.	8ee	16b	8E	8ee	16b
.	.	.	16ee	.	.	16ee
4A	4r	8ee	16cc	8r	8ee	16cc
.	.	.	16ee	.	.	16ee
.	.	8a	16cc	8A	8a	16cc
.	.	.	16ee	.	.	16ee
4r	4a	8r	16cc	8c	8r	16cc
.	.	.	16ee	.	.	16ee
.	.	8ee	16cc	8A	8ee	16cc
.	.	.	16ee	.	.	16ee
=49	=49	=49	=49	=49	=49	=49
4G#	4r	8ee	16b	8r	8ee	16b
.	.	.	16ee	.	.	16ee
.	.	8e	16b	8E	8e	16b
.	.	.	16ee	.	.	16ee
4r	4e	8r	16b	8G#	8r	16b
.	.	.	16ee	.	.	16ee
.	.	8ee	16b	8E	8ee	16b
.	.	.	16ee	.	.	16ee
4A	4r	8ee	16cc	8r	8ee	16cc
.	.	.	16ee	.	.	16ee
.	.	8a	16cc	8A	8a	16cc
.	.	.	16ee	.	.	16ee
4r	4a	4r	16cc	8c	4r	16cc
.	.	.	16ee	.	.	16ee
.	.	.	16cc	8A	.	16cc
.	.	.	16ee	.	.	16ee
=50	=50	=50	=50	=50	=50	=50
4AA	4r	4ff	16cc	8r	4ff	16cc
.	.	.	16ff	.	.	16ff
.	.	.	16cc	8F	.	16cc
.	.	.	16ff	.	.	16ff
4r	4f	8r	16cc	8A	8r	16cc
.	.	.	16ff	.	.	16ff
.	.	8ff	16cc	8F	8ff	16cc
.	.	.	16ff	.	.	16ff
4BB-	4r	8ff	16dd	8r	8ff	16dd
.	.	.	16ff	.	.	16ff
.	.	8b-	16dd	8B-	8b-	16dd
.	.	.	16ff	.	.	16ff
4r	4B-	4r	16dd	8d	4r	16dd
.	.	.	16ff	.	.	16ff
.	.	.	16dd	8B-	.	16dd
.	.	.	16ff	.	.	16ff
=51	=51	=51	=51	=51	=51	=51
4BB	4r	4gg	16dd	8r	4gg	16dd
.	.	.	16gg	.	.	16gg
.	.	.	16dd	8G	.	16dd
.	.	.	16gg	.	.	16gg
4r	4g	8r	16dd	8B	8r	16dd
.	.	.	16gg	.	.	16gg
.	.	8gg	16dd	8G	8gg	16dd
.	.	.	16gg	.	.	16gg
4C	4r	8gg	16ee	8r	8gg	16ee
.	.	.	16gg	.	.	16gg
.	.	8cc	16ee	8c	8cc	16ee
.	.	.	16gg	.	.	16gg
4r	4c	4r	16ee	8e	4r	16ee
.	.	.	16gg	.	.	16gg
.	.	.	16ee	8c	.	16ee
.	.	.	16gg	.	.	16gg
=52	=52	=52	=52	=52	=52	=52
4C#	4r	4aa	16ee	8r	4aa	16ee
.	.	.	16aa	.	.	16aa
.	.	.	16ee	8A	.	16ee
.	.	.	16aa	.	.	16aa
4r	4a	8r	16ee	8c#	8r	16ee
.	.	.	16aa	.	.	16aa
.	.	8aa	16ee	8A	8aa	16ee
.	.	.	16aa	.	.	16aa
4D	4r	8aa	16ff	8r	8aa	16ff
.	.	.	16aa	.	.	16aa
.	.	8dd	16ff	8d	8dd	16ff
.	.	.	16aa	.	.	16aa
4r	4d	4r	16ff	8f	4r	16ff
.	.	.	16aa	.	.	16aa
.	.	.	16ff	8d	.	16ff
.	.	.	16aa	.	.	16aa
=53	=53	=53	=53	=53	=53	=53
4BB-	4r	4bb-	16ff	8r	4bb-	16ff
.	.	.	16bb-	.	.	16bb-
.	.	.	16ff	8B-	.	16ff
.	.	.	16bb-	.	.	16bb-
8r	4b-	8r	16ff	8d	8r	16ff
.	.	.	16bb-	.	.	16bb-
8B-	.	8bb-	16ff	8B-	8bb-	16ff
.	.	.	16bb-	.	.	16bb-
8c	4g	4bb-	8ee	8c	4bb-	8ee
8E	.	.	8cc	8E	.	8cc
8F	8f	8aa	[4ff	8F	8aa	[4ff
8BB-	8d	8gg	.	8BB-	8gg	.
=54	=54	=54	=54	=54	=54	=54
4C	4.c	4aa	4ff]	4C	4aa	4ff]
4CC	.	4gg	4ee	4CC	4gg	4ee
.	8c	.	.	.	.	.
2FF	2A	2ff	2ff	2FF	2ff	2ff
=55	=55	=55	=55	=55	=55	=55
4BB-	4r	4dd	16f	8r	4dd	16f
.	.	.	16b-	.	.	16b-
.	.	.	16dd	8B-	.	16dd
.	.	.	16b-	.	.	16b-
4r	4b-	8r	16f	8d	8r	16f
.	.	.	16b-	.	.	16b-
.	.	8dd	16dd	8B-	8dd	16dd
.	.	.	16b-	.	.	16b-
4AA	4r	8cc	16f	8r	8cc	16f
.	.	.	16a	.	.	16a
.	.	8A	16cc	8F	8A	16cc
.	.	.	16a	.	.	16a
4r	4f	4r	16f	8A	4r	16f
.	.	.	16a	.	.	16a
.	.	.	16cc	8F	.	16cc
.	.	.	16a	.	.	16a
=56	=56	=56	=56	=56	=56	=56
4BB-	4r	4dd	16f	8r	4dd	16f
.	.	.	16b-	.	.	16b-
.	.	.	16dd	8B-	.	16dd
.	.	.	16b-	.	.	16b-
4r	4b-	8r	16f	8d	8r	16f
.	.	.	16b-	.	.	16b-
.	.	8dd	16dd	8B-	8dd	16dd
.	.	.	16b-	.	.	16b-
4AA	4r	8cc	16f	8r	8cc	16f
.	.	.	16a	.	.	16a
.	.	8A	16cc	8F	8A	16cc
.	.	.	16a	.	.	16a
4r	4f	4r	16f	8A	4r	16f
.	.	.	16a	.	.	16a
.	.	.	16cc	8F	.	16cc
.	.	.	16a	.	.	16a
=57	=57	=57	=57	=57	=57	=57
4BB-	4r	4dd	8dd	8r	4dd	8dd
.	.	.	8f	8B-	.	8f
8r	4b-	8r	2b-	8d	8r	2b-
8B-	.	8gg	.	8B-	8gg	.
8c	4g	8ee	.	8c	8ee	.
8E	.	8cc	.	8E	8cc	.
8F	8f	[4ff	8a	8F	[4ff	8a
8BB-	8d	.	8g	8BB-	.	8g
=58	=58	=58	=58	=58	=58	=58
4C	4.c	4ff]	4a	4C	4ff]	4a
4CC	.	4ee	4g	4CC	4ee	4g
.	8c	.	.	.	.	.
2FF	2A	2ff	2f	2FF	2ff	2f
=59	=59	=59	=59	=59	=59	=59
4BB-	4B-	8ff	4dd	8B-	8ff	4dd
.	.	8f	.	8BB-	8f	.
8r	8r	2b-	8r	8D	2b-	8r
8BB-	8b-	.	8d	8BB-	.	8d
8C	4g	.	8e	8C	.	8e
8E	.	.	8c	8E	.	8c
8F	8f	8a	[4f	8F	8a	[4f
8BB-	8d	8g	.	8BB-	8g	.
=60	=60	=60	=60	=60	=60	=60
4C	4.c	4a	4f]	4C	4a	4f]
4CC	.	4g	4e	4CC	4g	4e
.	8c	.	.	.	.	.
2FF	2A	2f	2f	2FF	2f	2f
==	==	==	==	==	==	==
*-	*-	*-	*-	*-	*-	*-
!!!RWG: This file only contains pitch and duration data.
!!!RWG: Transposing instruments are not transposed.
!!!RWG: Durations of rests and tied notes may be interpreted.
!!!RWG: Key is interpreted using the Humdrum key tool.
!!!SCA: 
!!!YOR: Chrysander Edition
!!!AGN: concerto grosso
!!!AFT: stage1
!!!ENC: F. Bennion
!!!END: 1997/04/15
!!!AST: baroque
!!!YEC: Copyright 1994, Center for Computer Assisted Research in the Humanities
!!!YEM: Rights to all derivative electronic formats reserved.
!!!YEM: Refer to licensing agreement for further details.
!!!YEN: United States of America
!!!EED: W.B. Hewlett
!!!KEY: 4217272994
!!!EMD: Converted from MuseData to Humdrum Aug 9, 1999, by Bret Aarden using muse2kern.
!!!VTS: 2706300795
